dist/img/svg/buy/back2.svg

<svg width="447" height="435" viewBox="0 0 447 435" fill="none" xmlns="http://www.w3.org/2000/svg">
<g filter="url(#filter0_d_280_427)">
<path fill-rule="evenodd" clip-rule="evenodd" d="M247.132 44.0031C302.491 59.1861 303.832 123.253 334.082 165.188C356.044 195.634 379.699 211.992 397.808 252.88C411.307 304.774 413.889 340.503 366.337 373.83C318.831 407.125 277.889 392.507 216.155 380.194C167.203 370.429 112.366 372.884 78.087 341.527C42.7175 309.173 38.7775 263.011 41.0413 220.007C43.4029 175.144 53.8731 130.091 90.8808 98.4863C131.736 63.5954 190.17 28.3802 247.132 44.0031Z" fill="url(#paint0_linear_280_427)"/>
</g>
<defs>
<filter id="filter0_d_280_427" x="0.524414" y="0.190918" width="445.797" height="434.06" filterUnits="userSpaceOnUse" color-interpolation-filters="sRGB">
<feFlood flood-opacity="0" result="BackgroundImageFix"/>
<feColorMatrix in="SourceAlpha" type="matrix" values="0 0 0 0 0 0 0 0 0 0 0 0 0 0 0 0 0 0 127 0" result="hardAlpha"/>
<feOffset/>
<feGaussianBlur stdDeviation="20"/>
<feComposite in2="hardAlpha" operator="out"/>
<feColorMatrix type="matrix" values="0 0 0 0 1 0 0 0 0 1 0 0 0 0 1 0 0 0 0.25 0"/>
<feBlend mode="normal" in2="BackgroundImageFix" result="effect1_dropShadow_280_427"/>
<feBlend mode="normal" in="SourceGraphic" in2="effect1_dropShadow_280_427" result="shape"/>
</filter>
<linearGradient id="paint0_linear_280_427" x1="134.023" y1="60.5172" x2="309.536" y2="398.079" gradientUnits="userSpaceOnUse">
<stop stop-color="#4733FF"/>
<stop offset="1" stop-color="#FEDE85"/>
</linearGradient>
</defs>
</svg>

<svg width="447" height="435" viewBox="0 0 447 435" fill="none" xmlns="http://www.w3.org/2000/svg"><g filter="url(#filter0_d_280_427)"><path fill-rule="evenodd" clip-rule="evenodd" d="M247.132 44.003c55.359 15.183 56.7 79.25 86.95 121.185 21.962 30.446 45.617 46.804 63.726 87.692 13.499 51.894 16.081 87.623-31.471 120.95-47.506 33.295-88.448 18.677-150.182 6.364-48.952-9.765-103.789-7.31-138.068-38.667-35.37-32.354-39.31-78.516-37.046-121.52 2.362-44.863 12.832-89.916 49.84-121.52 40.855-34.892 99.289-70.107 156.251-54.484z" fill="url(#paint0_linear_280_427)"/></g><defs><linearGradient id="paint0_linear_280_427" x1="134.023" y1="60.517" x2="309.536" y2="398.079" gradientUnits="userSpaceOnUse"><stop stop-color="#4733FF"/><stop offset="1" stop-color="#FEDE85"/></linearGradient><filter id="filter0_d_280_427" x=".524" y=".191" width="445.797" height="434.06" filterUnits="userSpaceOnUse" color-interpolation-filters="sRGB"><feFlood flood-opacity="0" result="BackgroundImageFix"/><feColorMatrix in="SourceAlpha" values="0 0 0 0 0 0 0 0 0 0 0 0 0 0 0 0 0 0 127 0" result="hardAlpha"/><feOffset/><feGaussianBlur stdDeviation="20"/><feComposite in2="hardAlpha" operator="out"/><feColorMatrix values="0 0 0 0 1 0 0 0 0 1 0 0 0 0 1 0 0 0 0.25 0"/><feBlend in2="BackgroundImageFix" result="effect1_dropShadow_280_427"/><feBlend in="SourceGraphic" in2="effect1_dropShadow_280_427" result="shape"/></filter></defs></svg>
